markup/images/icon49.svg

<svg xmlns="http://www.w3.org/2000/svg" width="24" height="24"><path fill-rule="evenodd" fill="#0D1B27" d="M11.881 24.008c-6.566 0-11.889-5.231-11.889-11.679C-.008 5.877 5.315.645 11.881.645c6.564 0 11.885 5.232 11.885 11.684 0 6.448-5.321 11.679-11.885 11.679zm0-19.819c-4.565 0-8.28 3.65-8.28 8.139 0 4.484 3.715 8.132 8.28 8.132 4.564 0 8.275-3.648 8.276-8.132 0-4.488-3.711-8.139-8.276-8.139zm1.021 9.505v.001h-2.047V7.174c0-.555.458-1.002 1.026-1.002a1.01 1.01 0 0 1 1.022 1.002l-.001 4.51h4.591c.562 0 1.021.449 1.021 1.006 0 .557-.459 1.005-1.021 1.005l-4.591-.001z"/></svg>

<svg 
 xmlns="http://www.w3.org/2000/svg"
 xmlns:xlink="http://www.w3.org/1999/xlink"
 width="24px" height="24px">
<path fill-rule="evenodd"  fill="rgb(13, 27, 39)"
 d="M11.881,24.008 C5.315,24.008 -0.008,18.777 -0.008,12.329 C-0.008,5.877 5.315,0.645 11.881,0.645 C18.445,0.645 23.766,5.877 23.766,12.329 C23.766,18.777 18.445,24.008 11.881,24.008 ZM11.881,4.189 C7.316,4.189 3.601,7.839 3.601,12.328 C3.601,16.812 7.316,20.460 11.881,20.460 C16.445,20.460 20.156,16.812 20.157,12.328 C20.157,7.840 16.446,4.189 11.881,4.189 ZM12.902,13.694 L12.902,13.695 L10.855,13.695 L10.855,13.694 L10.855,11.684 L10.855,7.174 C10.855,6.619 11.313,6.172 11.881,6.172 C12.446,6.172 12.903,6.619 12.903,7.174 L12.902,11.684 L17.493,11.684 C18.055,11.684 18.514,12.133 18.514,12.690 C18.514,13.247 18.055,13.695 17.493,13.695 L12.902,13.694 Z"/>
</svg>
